resources/icons/scopy-default/icons/network_analyzer.svg

<?xml version="1.0" encoding="UTF-8"?>
<svg width="21px" height="21px" viewBox="0 0 21 21" version="1.1" xmlns="http://www.w3.org/2000/svg" xmlns:xlink="http://www.w3.org/1999/xlink">
    <title>network</title>
    <g id="network" stroke="none" stroke-width="1" fill="none" fill-rule="evenodd" fill-opacity="0.400000006">
        <path d="M11,12 L21,12 L21,11 C21.0010189,6.22919837 17.6317925,2.12206124 12.9528447,1.19039785 C8.27389692,0.258734457 3.58841296,2.76203263 1.76190269,7.16934581 C-0.0646075793,11.576659 1.47657733,16.6604578 5.44291219,19.3116344 C9.40924706,21.9628109 14.6960243,21.4429567 18.07,18.07 L16.66,16.65 C14.0277538,19.2832888 9.92683161,19.7525128 6.76780596,17.7818563 C3.60878031,15.8111998 2.22690286,11.9217077 3.43445818,8.39967138 C4.64201351,4.87763501 8.11972197,2.65428666 11.8233437,3.03653785 C15.5269655,3.41878905 18.4772567,6.30557194 18.94,10 L16.91,10 C16.3792569,6.86009153 13.4880102,4.68175717 10.3235028,5.03757573 C7.15899553,5.3933943 4.82369295,8.15940412 5.00349212,11.3387729 C5.18329129,14.5181416 7.81555295,17.0032265 11,17 L11,15 C8.92093177,15.0015505 7.18730109,13.4101032 7.01136468,11.3384919 C6.83542826,9.26688059 8.27585087,7.40586946 10.3254042,7.05678716 C12.3749574,6.70770486 14.3502322,7.98695043 14.87,10 L11,10 L11,12 L11,12 Z" fill="#FFFFFF"></path>
    </g>
</svg>

<?xml version="1.0" encoding="UTF-8"?>
<svg width="21px" height="21px" version="1.1" viewBox="0 0 21 21" xmlns="http://www.w3.org/2000/svg">
 <g fill="#fff" fill-opacity=".6" fill-rule="evenodd">
  <path d="m11 12h10v-1c0.0010189-4.7708-3.3682-8.8779-8.0472-9.8096-4.6789-0.93166-9.3644 1.5716-11.191 5.9789-1.8265 4.4073-0.28533 9.4911 3.681 12.142 3.9663 2.6512 9.2531 2.1313 12.627-1.2416l-1.41-1.42c-2.6322 2.6333-6.7332 3.1025-9.8922 1.1319s-4.5409-5.8601-3.3333-9.3822c1.2076-3.522 4.6853-5.7454 8.3889-5.3631 3.7036 0.38225 6.6539 3.269 7.1167 6.9635h-2.03c-0.53074-3.1399-3.422-5.3182-6.5865-4.9624-3.1645 0.35582-5.4998 3.1218-5.32 6.3012s2.8121 5.6645 5.9965 5.6612v-2c-2.0791 0.0015505-3.8127-1.5899-3.9886-3.6615-0.17594-2.0716 1.2645-3.9326 3.314-4.2817 2.0496-0.34908 4.0248 0.93016 4.5446 2.9432h-3.87v2z"/>
 </g>
</svg>
